!!!COM: Frescobaldi, Girolamo
!!!CDT: 1583///-1643
!!!ONM: No. 35
!!!OTL: No. 35: Canzon Prima &agrave; 4. Canto, Alto, Tenore, Basso, Sopra Rugier
!!!OPR: Canzoni da sonare a una, due, tre et quattro, libro primo
!!!PPP: Venezia
!!!PDT: 1634
!!!URL: http://icking-music-archive.org/ByComposer/Frescobaldi.html
!!!ONB: Andrea Friggi, ed.
**kern	**kern	**kern	**kern	**kern
!Basso ad Organo	!Basso	!Tenore	!Alto	!Soprano
*staff5	*staff4	*staff3	*staff2	*staff1
*Icello	*Icello	*Iviola	*Ivioln	*Ivioln
*clefF4	*clefF4	*clefC3	*clefG2	*clefG2
*k[]	*k[]	*k[]	*k[]	*k[]
*met(C)	*met(C)	*met(C)	*met(C)	*met(C)
*M4/4	*M4/4	*M4/4	*M4/4	*M4/4
*MM120	*MM120	*MM120	*MM120	*MM120
=1-	=1-	=1-	=1-	=1-
1G	1r	2r	1r	2.dd\
.	.	[2d\	.	.
.	.	.	.	4dd\
=2	=2	=2	=2	=2
1G	2.G\	4d\]	2r	4b\
.	.	4d\	.	4g/
.	.	4B/	[2g/	4.dd\
.	4G\	4G/	.	.
.	.	.	.	8dd\
=3	=3	=3	=3	=3
1C	4E\	2.g\	4g/]	2.ee\
.	4C/	.	4g/	.
.	2c\	.	4e/	.
.	.	8f\L	[4cc\	4ee\
.	.	8e\J	.	.
=4	=4	=4	=4	=4
1D	2.d\	4f#\	4cc\]	2dd\
.	.	2g\	4b\	.
.	.	.	2a/	4r
.	4D\	4f#\	.	[4dd\
=5	=5	=5	=5	=5
1G	4G\	2g\	2b\	4dd\]
.	8G\L	.	.	4dd\
.	8A\J	.	.	.
.	2B\	8G/L	4r	4b\
.	.	8A/	.	.
.	.	8B/	4d/	8g/L
.	.	8c/J	.	8a/J
=6	=6	=6	=6	=6
[1G	8G\L	2d\	4g/	8b\L
.	8A\	.	.	8cc\J
.	8B\	.	8g/L	2dd\
.	8c\J	.	8a/J	.
.	2d\	2G/	2b\	.
.	.	.	.	4g/
=7	=7	=7	=7	=7
2G\]	2G\	4d\	2r	4.b\
.	.	2e\	.	.
.	.	.	.	8cc\
2F\	2F\	.	4r	4.a/
.	.	4d\	4d/	.
.	.	.	.	8b\
=8	=8	=8	=8	=8
1E	1E	4.e\	4g/	8cc\L
.	.	.	.	8b\J
.	.	.	8g/L	4.ee\
.	.	8f\	8a/J	.
.	.	4g\	4b\	.
.	.	.	.	8dd\
.	.	4e\	8a/L	4cc#\
.	.	.	8g/J	.
=9	=9	=9	=9	=9
1D	1D	4f#\	1a	2dd\
.	.	4A/	.	.
.	.	4d\	.	4r
.	.	8d\L	.	4a/
.	.	8e\J	.	.
=10	=10	=10	=10	=10
1D	2r	1f#	4r	4dd\
.	.	.	4d/	8dd\L
.	.	.	.	8ee\J
.	4r	.	4a/	2ff#\
.	4D\	.	8a/L	.
.	.	.	8g/J	.
=11	=11	=11	=11	=11
2d\	4d\	4r	4f#/	4a/
.	8d\L	2d\	4f#/	4.dd\
.	8c\J	.	.	.
4B\	8B\L	.	2g/	.
.	8A\	.	.	8cc\
4G\	8G\	[4g\	.	[4b\
.	8F\J	.	.	.
=12	=12	=12	=12	=12
2E\	2E\	8g\L]	4r	4b\]
.	.	8f\J	.	.
.	.	2e\	2g/	4b\
2AA/	2AA/	.	.	4.cc#\
.	.	4e\	8f/L	.
.	.	.	8e/J	8cc#\
=13	=13	=13	=13	=13
1D	2D\	4d\	1f#	2dd\
.	.	4A/	.	.
.	4r	4a\	.	2r
.	4D\	8a\L	.	.
.	.	8g\J	.	.
=14	=14	=14	=14	=14
2d\	4d\	4f#\	2r	4r
.	8d\L	4f#\	.	2dd\
.	8c\J	.	.	.
2B\	4B\	4g\	4r	.
.	4B\	4d\	[4g/	[4gg\
=15	=15	=15	=15	=15
2c\	4c\	4.e\	4g/]	8gg\L]
.	.	.	.	8ff\J
.	4C/	.	4.cc\	4.ee\
.	.	8f\	.	.
2E\	4.E\	4g\	.	.
.	.	.	8b/L	8dd\
.	.	4e\	8a/	4cc#\
.	8E\	.	8g/J	.
=16	=16	=16	=16	=16
1D	2.D\	4f#\	4.a/	2.dd\
.	.	4A/	.	.
.	.	.	8g/	.
.	.	4d\	8f#/L	.
.	.	.	8a/	.
.	4D\	8d\L	8g/	4dd\
.	.	8c\J	8f#/J	.
=17	=17	=17	=17	=17
1G	1G	1B	1g	1dd
=18	=18	=18	=18	=18
*clefC3	*M3/1	*M3/1	*M3/1	*M3/1
*M3/1	*	*	*	*
0g	0.r	1r	1.b	1.dd
.	.	1g	.	.
.	.	.	2a/	2cc\
1g	.	1g	1b	2dd\
.	.	.	.	2b\
=19	=19	=19	=19	=19
0c	1r	0c	1cc	1.ee
.	1r	.	1a	.
.	.	.	.	2ee\
1d	1D	1d	1a	1ff#
=20	=20	=20	=20	=20
*clefF4	*	*	*	*
1.G	1.G	1.d	0b	0gg
2A\	2A\	2c\	.	.
1B	1B	2d\	1r	1g
.	.	2B/	.	.
=21	=21	=21	=21	=21
0c	0c	1.e	1r	1g
.	.	.	1r	2cc\
.	.	2e\	.	2b\
1d	1d	1f#	[1d	1a
=22	=22	=22	=22	=22
0G	0G	0g	2d/]	0b
.	.	.	2d/	.
.	.	.	2e/	.
.	.	.	2f/	.
1G	1G	1r	2g/	1r
.	.	.	2d/	.
=23	=23	=23	=23	=23
0G	0G	1.B	2.g/	1.dd
.	.	.	4a/	.
.	.	.	1b	.
.	.	2B/	.	2dd\
1F	1F	2c\	1a	2ee\
.	.	2d\	.	2ff\
=24	=24	=24	=24	=24
1.E	1.E	1e	1g	1.gg
.	.	1B	1e	.
2E\	2E\	.	.	2gg\
1A	1A	1c#	1e	1ee
=25	=25	=25	=25	=25
0.D	0.D	0d	0f#	1.dd
.	.	.	.	2a/
.	.	1d	1r	2b\
.	.	.	.	2cc\
=26	=26	=26	=26	=26
0D	1r	1.d	1r	2dd\
.	.	.	.	2a/
.	1r	.	1a	2dd\
.	.	2e\	.	4cc\
.	.	.	.	4b\
1D	1D	1f#	1a	2a/
.	.	.	.	2b\
=27	=27	=27	=27	=27
0E	1.E	2g\	1.g	2cc\
.	.	2G/	.	2b\
.	.	2c\	.	1.ee
.	2E\	2B/	2g/	.
1A	1A	1c#	2f/	.
.	.	.	2e/	2ee\
=28	=28	=28	=28	=28
0D	1.D	0.d	2.f#/	0dd
.	.	.	4g/	.
.	.	.	2a/	.
.	2C/	.	2f#/	.
1BB	1BB	.	2g/	1dd
.	.	.	2f#/	.
=29	=29	=29	=29	=29
0C	1.C	1r	0e	1g
.	.	1G	.	1cc
.	2D\	.	.	.
1E	1E	1G	1e	2b\
.	.	.	.	2cc#\
=30	=30	=30	=30	=30
0D	0D	1A	1f#	0dd
.	.	2B/	1.g	.
.	.	2c\	.	.
1D	1D	1d	.	1a
.	.	.	2f#/	.
=31	=31	=31	=31	=31
*met(C)	*met(C)	*met(C)	*met(C)	*met(C)
*M4/4	*M4/4	*M4/4	*M4/4	*M4/4
*	*	*	*	*MM120
2G\	2G\	2d\	1g	2b\
*clefC3	*	*	*	*
2g\	2r	2g\	.	4r
.	.	.	.	4dd\
=32	=32	=32	=32	=32
2g\	1r	2g\	8r	8b/L
.	.	.	8dd\L	8g/J
.	.	.	8b\	8dd\L
.	.	.	8g\J	16ee\L
.	.	.	.	16ff\JJ
2g\	.	2g\	4.b\	8gg\L
.	.	.	.	8ff\
.	.	.	.	8ee\
.	.	.	8b\	8dd\J
=33	=33	=33	=33	=33
2c\	2r	2c\	4cc\	8ee\L
.	.	.	.	8dd\
.	.	.	2g/	8cc\
.	.	.	.	8b\J
2d\	4r	2d\	.	4.a/
.	4d\	.	4f#/	.
.	.	.	.	8a/
=34	=34	=34	=34	=34
1G	4.B\	1G	2g/	8b\L
.	.	.	.	8dd\J
.	.	.	.	4b\
.	8G\	.	.	.
.	8E\L	.	4r	4g/
.	8C\J	.	.	.
.	8G\L	.	4g/	8b\L
.	16A\L	.	.	16cc\L
.	16B\JJ	.	.	16dd\JJ
=35	=35	=35	=35	=35
*clefF4	*	*	*	*
2c\	2c\	2r	8e/L	2ee\
.	.	.	8c/J	.
.	.	.	8g/L	.
.	.	.	16a/L	.
.	.	.	16b/JJ	.
4.E\	4.E\	2g\	4cc\	2r
.	.	.	8b/L	.
8F\	8F\	.	8a/J	.
=36	=36	=36	=36	=36
2G\	2G\	2g\	2b\	8r
.	.	.	.	8dd\L
.	.	.	.	8b\
.	.	.	.	8g\J
2D\	8D\L	2f\	2r	8dd\L
.	8d\	.	.	8dd\
.	8A\	.	.	8cc\
.	8B\J	.	.	8dd\J
=37	=37	=37	=37	=37
2C/	2c\	2.e\	4r	8ee\L
.	.	.	.	8gg\
.	.	.	4cc\	8ee\
.	.	.	.	8cc\J
2E\	2r	.	8b/L	8.gg\L
.	.	.	8g/	.
.	.	.	.	16gg\Jk
.	.	4e\	8b/	8ff#\L
.	.	.	8cc#/J	8ee\J
=38	=38	=38	=38	=38
2D\	4r	1d	4dd\	2ff#\
.	4d\	.	4a/	.
4G\	8B\L	.	4b\	4r
.	8G\	.	.	.
4D\	8d\	.	4a/	4dd\
.	8D\J	.	.	.
=39	=39	=39	=39	=39
2G\	4G\	2r	2g/	8b\L
.	.	.	.	8g\
.	8F\L	.	.	8dd\
.	8E\J	.	.	8ee\J
2D\	2D\	2d\	4r	8ff#\L
.	.	.	.	16dd\L
.	.	.	.	16ee\JJ
.	.	.	4a/	8ff#\L
.	.	.	.	8gg\J
=40	=40	=40	=40	=40
2d\	1r	2d\	8f#/L	4aa\
.	.	.	8d/J	.
.	.	.	8a\L	4dd\
.	.	.	16b\L	.
.	.	.	16cc\JJ	.
2D\	.	2d\	8dd\L	2ff#\
.	.	.	8cc\	.
.	.	.	8b\	.
.	.	.	8a\J	.
=41	=41	=41	=41	=41
2E\	4r	2.e\	4g/	2gg\
.	4E\	.	4b\	.
8C#/L	8C#/L	.	4.a/	2r
8AA/J	8AA/J	.	.	.
4A\	8A\L	4e\	.	.
.	16B\L	.	8a/	.
.	16c#\JJ	.	.	.
=42	=42	=42	=42	=42
1D	2d\	[1d	8f#/L	4a/
.	.	.	8d/J	.
.	.	.	4a/	8f#/L
.	.	.	.	8d/J
.	4r	.	2f#/	8a\L
.	.	.	.	16b\L
.	.	.	.	16cc\JJ
.	4D\	.	.	[4dd\
=43	=43	=43	=43	=43
4BB/	8BB/L	2d\]	2g/	8dd\L]
.	8GG/J	.	.	8cc\
2G\	2G\	.	.	8b\
.	.	.	.	8a\J
.	.	2B/	8r	4.b\
.	.	.	8d/L	.
4G\	4G\	.	8B/	.
.	.	.	8G/J	16cc\LL
.	.	.	.	16dd\JJ
=44	=44	=44	=44	=44
2C/	8E\L	2c\	4.g/	2ee\
.	8C\J	.	.	.
.	4.c\	.	.	.
.	.	.	16a/LL	.
.	.	.	16b/JJ	.
2E\	.	2e\	4cc\	4r
.	8B\L	.	.	.
.	8A\	.	[4cc\	4ee\
.	8G\J	.	.	.
=45	=45	=45	=45	=45
1D	4F#\	1d	4cc\]	4aa\
.	4G\	.	4bn\	2gg\
.	2D\	.	2a/	.
.	.	.	.	4ff#\
=46	=46	=46	=46	=46
1G	1G	1G	1b	1gg
=47	=47	=47	=47	=47
*M2/2	*M2/2	*M2/2	*M2/2	*M2/2
2G\	2.r	2.r	4r	2dd\
.	.	.	4g/	.
4G\	.	.	4f/	4dd\
=48	=48	=48	=48	=48
2c\	2.r	4r	2e/	2g/
.	.	4c\	.	.
4A\	.	4A/	4f/	4a/
=49	=49	=49	=49	=49
4B-\	4r	2B-/	4f/	2.d/
4G\	4G\	.	4g/	.
4F\	4F\	4A/	4a/	.
=50	=50	=50	=50	=50
4E\	4E\	4c\	2g/	2.r
4D\	4D\	4d\	.	.
4C/	4C/	4e\	4g/	.
=51	=51	=51	=51	=51
2D\	2D\	2A/	2.f#/	4r
.	.	.	.	2dd\
4D\	4D\	4A/	.	.
=52	=52	=52	=52	=52
4.G\	4.G\	4B/	2.r	2dd\
.	.	2e\	.	.
8G\	8G\	.	.	.
4A\	4A\	.	.	4cc\
=53	=53	=53	=53	=53
2B\	2B\	2.d\	4r	2b\
.	.	.	2g/	.
4G\	4G\	.	.	4b\
=54	=54	=54	=54	=54
4d\	4d\	4r	2g/	2.a/
2D\	2D\	2d\	.	.
.	.	.	4f/	.
=55	=55	=55	=55	=55
2A\	2A\	4d\	2e/	2.a/
.	.	[2c\	.	.
4A\	4A\	.	4e/	.
=56	=56	=56	=56	=56
4F#\	4F#\	4c\]	2d/	2.r
2G\	2G\	2B/	.	.
.	.	.	4g/	.
=57	=57	=57	=57	=57
2.D\	2.D\	4B/	4g/	4r
.	.	2A/	2f#/	2dd\
=58	=58	=58	=58	=58
2G\	2G\	2.B/	[2.g/	2dd\
4F\	4F\	.	.	4dd\
=59	=59	=59	=59	=59
2E\	2E\	4r	2.g/]	2ee\
.	.	[2c\	.	.
4C/	4C/	.	.	4ee\
=60	=60	=60	=60	=60
2.G\	2.G\	4c\]	4r	2.dd\
.	.	2B/	2g/	.
=61	=61	=61	=61	=61
2.G\	2.G\	2e\	2g/	2.b\
.	.	4d\	4f/	.
=62	=62	=62	=62	=62
2A\	2A\	2.c\	4e/	2cc\
.	.	.	4c/	.
4D\	4D\	.	4cc\	4ee\
=63	=63	=63	=63	=63
2G\	2G\	2.d\	2.b\	2.dd\
4BB/	4BB/	.	.	.
=64	=64	=64	=64	=64
2C/	2C/	2c\	4.e/	[2.g/
.	.	.	8f/	.
4E\	4E\	4c\	4g/	.
=65	=65	=65	=65	=65
2.G\	2.G\	4.B/	2.d/	2.g/]
.	.	8A/	.	.
.	.	4B/	.	.
=66	=66	=66	=66	=66
*met(C)	*met(C)	*met(C)	*met(C)	*met(C)
*M4/4	*M4/4	*M4/4	*M4/4	*M4/4
1C	1C	2c\	2e/	1g
.	.	4r	2g/	.
.	.	4c\	.	.
=67	=67	=67	=67	=67
2G\	4r	4.B/	2g/	1r
.	4G\	.	.	.
.	.	8d\	.	.
4.E\	4.E\	8c/L	2g/	.
.	.	8B/J	.	.
.	.	4e\	.	.
8G\	8G\	.	.	.
=68	=68	=68	=68	=68
4.F\	4.F\	1A	2.a/	4r
.	.	.	.	4ff\
8D\	8D\	.	.	.
4A\	4A\	.	.	4.cc\
4F\	4F\	.	4a/	.
.	.	.	.	8ff\
=69	=69	=69	=69	=69
4c\	4c\	2r	1g	4.ee\
4C/	4C/	.	.	.
.	.	.	.	8ff\
4.G\	4.G\	4r	.	4.dd\
.	.	4g\	.	.
8E\	8E\	.	.	8ee\
=70	=70	=70	=70	=70
4A\	4A\	4.e\	1r	4.cc\
4c\	4c\	.	.	.
.	.	8f\	.	8dd\
2G\	2G\	4.d\	.	8b/L
.	.	.	.	8g/J
.	.	.	.	4gg\
.	.	8e\	.	.
=71	=71	=71	=71	=71
4A\	4A\	2c\	2r	4ee\
2A\	2A\	.	.	4.cc\
.	.	2r	2e/	.
.	.	.	.	8cc\L
8G\L	8G\L	.	.	8b\
8A\J	8A\J	.	.	8cc#\J
=72	=72	=72	=72	=72
4D\	2D\	4r	2f/	8dd\L
.	.	.	.	8a\J
2D\	.	2d\	.	2ff\
.	2r	.	2a/	.
8C/L	.	8c\L	.	8ee\L
8D/J	.	8d\J	.	8ff#\J
=73	=73	=73	=73	=73
2BB/	4r	4B/	1g	2dd\
.	4BB/	2B/	.	.
[2C/	[2C/	.	.	2ee\
.	.	8A/L	.	.
.	.	8G/J	.	.
=74	=74	=74	=74	=74
2C/]	2C/]	8A/L	1c	4r
.	.	8E/J	.	.
.	.	4.e\	.	4g/
2E\	2E\	.	.	4g/
.	.	8f\L	.	.
.	.	8g\	.	4g/
.	.	8e\J	.	.
=75	=75	=75	=75	=75
2D\	2D\	2f#\	4r	4.a/
.	.	.	4d/	.
.	.	.	.	8a/
2G\	2G\	2g\	4d/	4g/
.	.	.	4d/	4b\
=76	=76	=76	=76	=76
2C/	2r	4r	4.e/	4cc\
.	.	2g\	.	4ee\
.	.	.	8e/	.
2BB/	2BB/	.	2d/	2dd\
.	.	8f\L	.	.
.	.	8g\J	.	.
=77	=77	=77	=77	=77
2C/	2C/	2e\	2r	1g
2E\	2E\	4r	2e/	.
.	.	[4c\	.	.
=78	=78	=78	=78	=78
1D	1D	4c\]	8f#/L	4a/
.	.	.	8a/J	.
.	.	4B/	2g/	8b\L
.	.	.	.	8cc\J
.	.	2A/	.	2dd\
.	.	.	4f#/	.
=79	=79	=79	=79	=79
0G	0G	0B	0g	0dd
==	==	==	==	==
*-	*-	*-	*-	*-
!!!ENC: Craig Stuart Sapp
!!!END: 2004/12/14/
